X:2
T:Palm Sunday (Jig)
I:titlefont Times-Roman 24
I:partsfont Times-Roman 20
M:6/8
L:1/8
O:Trad. (13.3.2014/NS)
R: jig
K:Ador
|:B |"Am"AGE G2E|G2E G2E|A2B c2d|"G"e2d efg|
"Am"~e3 ded|"G"BAG Bcd|"C"edc BAG|"D"B2A A2:|
|:e|"Am"~a3 efg|a2a "C"bge|"G"g2g gfe|dBA GBd|
"Am"efg ded|"G/B"BAG Bcd|"C"edc BAG|"D"B2A A2:|
%%vskip
%%vskip
K:Dmaj
P:The Burnt Old Man
|:"D"DFB AFD|~F3 F2E|DFB AFD|"A"E2E GFE|
"D"DFB AFD|F2A d2e|"G"fed B2B|"D"AFD "A"E3:|
|:"D"~d3 def|ABA AFA|"Em"~e3 ede|fed B2A|
"D/F#"~d3 def|ABA d2e|"G"fed B2B|"D"AFD "A"E3:|
%%vskip
W:Palm Sunday
%%vskip
W:||:B | AGE G2E | G2E G2E | A2B c2d | e2d efg |
W: ~e3 d2d | BAG Bcd | edc BAG | B2A A2 :|
W:||:e | ~a3 efg | a2a bge | g2g gfe | dBA GBd |
W: efg ded | BAG Bcd | edc BAG | B2A A2 :|
%%vskip
W:The Burnt Old Man
%%vskip
W:||:DFB AFD | ~F3 F2E | DFB AFD | E2E GFE |
W:DFB AFD | F2A d2e | fed B2B | AFD E3 :|
W:||:~d3 def | ABA AFA | ~e3 ede | fed B2A |
W:~d3 def | ABA d2e | fed B2B | AFD E3 :|

